!!!COM:	Martini, Johannes
!!!CDT:	~1440///-~1497//
!!!OPR:	Missa La Martinella
!!!ONM:	2
!!!OTL:	Gloria
!!!AGN:	Mass; Gloria
!!!SCT:	Mar1009b
!!!SCA:	Mar1009b
!!!voices:	4
!!!voices-OPR:	4
**kern	**kern	**kern	**kern
*staff4	*staff3	*staff2	*staff1
*Ivox	*Ivox	*Ivox	*Ivox
*I"Bassus	*I"Tenor	*I"Contratenor	*I"Superius
*I'B	*I'T	*I'Ct	*I'S
*>[A,B,C]	*>[A,B,C]	*>[A,B,C]	*>[A,B,C]
*>A	*>A	*>A	*>A
*clefF4	*clefGv2	*clefGv2	*clefG2
*k[b-]	*k[b-]	*k[b-]	*k[b-]
*M2/1	*M2/1	*M2/1	*M2/1
*met(C)	*met(C)	*met(C)	*met(C)
=1-	=1-	=1-	=1-
!!section: Et in terra pax
!!!OMD: Et in terra pax
0r	0r	0r	0g
=2	=2	=2	=2
0r	0r	0r	1f
.	.	.	1g
=3	=3	=3	=3
0r	0r	0G	0b-
=4	=4	=4	=4
0r	0r	1F	1a
.	.	1G	2.g/
.	.	.	8f/L
.	.	.	8e/J
=5	=5	=5	=5
0r	0r	1B-	1d
.	.	1A	2r
.	.	.	2a/
=6	=6	=6	=6
0r	0r	2.G/	2b-\
.	.	.	1dd
.	.	8F/L	.
.	.	8E/J	.
.	.	2D/	.
.	.	[2F/	2cc\
=7	=7	=7	=7
0r	0r	2F/]	2a/
.	.	2G/	2b-\
.	.	1A	2.cc\
.	.	.	4b-\
=8	=8	=8	=8
0r	0r	2B-\	2g/
.	.	1d	2b-\
.	.	.	2.a/
.	.	2c\	.
.	.	.	4g/
=9	=9	=9	=9
0r	0r	2A/	2f/
.	.	2B-\	2g/
.	.	2c\	2e/
.	.	4B-\	[2d/
.	.	4A/	.
=10	=10	=10	=10
0r	0r	2G/	2d/]
.	.	2B-\	1g
.	.	1A	.
.	.	.	2f#i/
=11	=11	=11	=11
0G	0r	0r	2g/
.	.	.	2d/
.	.	.	4e/
.	.	.	4d/
.	.	.	4c/
.	.	.	4B-/
=12	=12	=12	=12
1F	0r	0r	1A
1G	.	.	2G/
.	.	.	[2B-/
=13	=13	=13	=13
0B-	0r	0r	4B-/]
.	.	.	4c/
.	.	.	2.d/
.	.	.	4e/
.	.	.	[2f/
=14	=14	=14	=14
1A	0r	0r	4f/]
.	.	.	4e/
.	.	.	2c/
2.G\	.	.	2e/
.	.	.	[2d/
4F\	.	.	.
=15	=15	=15	=15
2D\	0r	0r	4d/]
.	.	.	4c/
2F\	.	.	2A/
2G\	.	.	2G/
[2B-\	.	.	[2d/
=16	=16	=16	=16
2B-\]	0r	0r	4d/]
.	.	.	4e/
4A\	.	.	4f/
4G\	.	.	4g/
2F\	.	.	4a/
.	.	.	4b-\
2A\	.	.	2cc\
=17	=17	=17	=17
2B-\	0r	0r	2g/
2.d\	.	.	2b-\
.	.	.	4a/
4c\	.	.	4g/
2B-\	.	.	[2g/
=18	=18	=18	=18
1A	0r	1r	2g/]
.	.	.	2f#i/
2r	.	1G	1g
2GG/	.	.	.
=19	=19	=19	=19
2.D\	0r	2.F/	0r
4BB-/	.	4G/	.
2C/	.	2A/	.
2D\	.	2B-\	.
=20	=20	=20	=20
2E\	0r	2c\	0r
2F\	.	2A/	.
2D\	.	2d\	.
[2G\	.	[2e\	.
=21	=21	=21	=21
2G\]	0r	4e\]	0r
.	.	4d\	.
2F\	.	1d	.
1E	.	.	.
.	.	2c#i\	.
=22	=22	=22	=22
1D	[0D	1.d	1f
1F	.	.	2f/
.	.	4c\	2f/
.	.	4B-\	.
=23	=23	=23	=23
2F\	1D]	2.A/	2.f/
2F\	.	.	.
.	.	4G/	4e/
[1BB-	[1F	[1B-	[1d
=24	=24	=24	=24
2BB-/]	0F]	1B-]	1d]
2BB-/	.	.	.
1BB-	.	1d	1b-
=25	=25	=25	=25
0E-i	[0G	2B-\	2b-\
.	.	2.e-\	2b-\
.	.	.	2.b-\
.	.	4d\	.
.	.	4c\	.
.	.	4B-\	4a/
=26	=26	=26	=26
1E-i	1G]	2.c\	1g
.	.	8B-\L	.
.	.	8c\J	.
[1D	[1A	1d	[1f
=27	=27	=27	=27
2D\]	0A]	2r	2f/]
4C/	.	2D/	4e/
4BB-/	.	.	4d/
1AA	.	2E/	2.c/
.	.	2F/	.
.	.	.	4B-/
=28	=28	=28	=28
0GG	[0B-	2.G/	0d
.	.	4A/	.
.	.	4B-\	.
.	.	4c\	.
.	.	[2d\	.
=29	=29	=29	=29
1G	1B-]	2d\]	2r
.	.	2B-\	2g/
2F\	[1A	2c\	2a/
[2D\	.	[2d\	[2f/
=30	=30	=30	=30
4D\]	1A]	2d\]	4f/]
4E\	.	.	4g/
2F\	.	2c\	2a/
2G\	1G	2B-\	2b-\
2E\	.	4A/	4cc\
.	.	4G/	[4b-\
=31	=31	=31	=31
2D\	0d	2F/	4b-\]
.	.	.	4a/
2GG/	.	2G/	2g/
1r	.	2F/	2a/
.	.	2G/	[2g/
=32	=32	=32	=32
1r	1c	1A	2g/]
.	.	.	2f#i/
2r	1B-	2G/	1g
2GG/	.	[2d\	.
=33	=33	=33	=33
2D\	2A/	4d\]	2f/
.	.	8c\L	.
.	.	8B-\J	.
2E-i\	2G/	4c\	2g/
.	.	4B-\	.
2D\	1F	2d\	2.a/
4C/	.	[2A/	.
4BB-/	.	.	4b-\
=34	=34	=34	=34
1AA	1A	4A/]	1cc
.	.	4G/	.
.	.	4F/	.
.	.	4E/	.
2GG/	1B-	2G/	1dd
[2G\	.	[2B-\	.
=35	=35	=35	=35
4G\]	1d	4B-\]	1b-
4A\	.	4c\	.
2B-\	.	4d\	.
.	.	4e\	.
[1F	[1c	[1f	[1a
=36	=36	=36	=36
2F\]	0c]	1f]	2a/]
2F\	.	.	2a/
1F	.	1f	1a
=37	=37	=37	=37
1G	[0B-	1d	1b-
[1E-	.	[1e-	[1g
=38	=38	=38	=38
1E-]	1B-]	1e-]	1g]
[1BB-	1r	2.d\	[1f
.	.	4B-\	.
=39	=39	=39	=39
2BB-/]	0r	2.d\	1f]
2C/	.	.	.
.	.	4c\	.
1D	.	4B-\	1f
.	.	2.A/	.
=40	=40	=40	=40
2GG/	0B-	2.G/	2g/
2r	.	.	2d/
.	.	4D/	.
2GG/	.	2G/	2.d/
[2BB-/	.	4F/	.
.	.	4E/	4e/
=41	=41	=41	=41
4BB-/]	1B-	1D	2f/
4AA/	.	.	.
2BB-/	.	.	2d/
2C/	[1A	2r	2e/
[2D\	.	[2F/	2d/
=42	=42	=42	=42
4D\]	0A]	4F/]	2.a/
4C/	.	4E/	.
2D\	.	2F/	.
.	.	.	4g/
2AA/	.	2E/	2a/
[2C/	.	[2E/	2e/
=43	=43	=43	=43
4C/]	0G	4E/]	2.g/
4BB-/	.	4D/	.
2C/	.	2E/	.
.	.	.	4f/
2GG/	.	2D/	2g/
2BB-/	.	[2D/	2d/
=44	=44	=44	=44
1AA	1F	2D/]	2r
.	.	2C/	2c/
2.GG/	[1G	2D/	2.B-/
.	.	[2d\	.
4AA/	.	.	4c/
=45	=45	=45	=45
2BB-/	0G]	2d\]	2d/
2C/	.	2c\	2.g/
2GG/	.	2B-\	.
.	.	.	4a/
2G\	.	4A/	2b-\
.	.	4G/	.
=46	=46	=46	=46
2A\	0r	2F/	2a/
2F\	.	2A/	2.cc\
2G\	.	2B-\	.
.	.	.	4b-\
2B-\	.	2d\	[2b-\
=47	=47	=47	=47
1F	0r	1c	2b-\]
.	.	.	2a/
2BB-/	.	2B-\	1b-
[2E-\	.	2r	.
=48	=48	=48	=48
4E-\]	0r	2.B-\	0r
4E-i\	.	.	.
2E-i\	.	.	.
.	.	4B-\	.
2.D\	.	2B-\	.
.	.	[2A/	.
4C/	.	.	.
=49	=49	=49	=49
2D\	0r	4A/]	0r
.	.	4G/	.
2BB-/	.	1G	.
1AA	.	.	.
.	.	2F#i/	.
=50	=50	=50	=50
2GG/	0r	1G	2.b-\
1G	.	.	.
.	.	.	4b-\
.	.	1r	2b-\
2F\	.	.	[2a/
=51	=51	=51	=51
2G\	0r	2r	4a/]
.	.	.	4g/
2B-\	.	1d	1g
1A	.	.	.
.	.	2c\	2f#i/
=52	=52	=52	=52
2.G\	0r	2.B-\	1g
4F\	.	4A/	.
2E\	.	2G/	1r
2D\	.	2F/	.
=53	=53	=53	=53
2C/	0r	4G/	0r
.	.	4A/	.
2BB-/	.	1B-	.
1C	.	.	.
.	.	2A/	.
=54	=54	=54	=54
1BB-	0r	1B-	1dd
2AA/	.	2c\	2cc\
2GG/	.	[2d\	[2b-\
=55	=55	=55	=55
2BB-/	0r	2d\]	4b-\]
.	.	.	4a/
2C/	.	2e-\	2g/
2D\	.	2d\	2f/
2G\	.	2B-\	[2b-\
=56	=56	=56	=56
1F	1r	1c	2b-\]
.	.	.	2a/
[1BB-	[1d	[1B-	1b-
=57	=57	=57	=57
1BB-]	1d]	2B-\]	2r
.	.	1.f	2b-\
1F	1c	.	4a/
.	.	.	4g/
.	.	.	2a/
=58	=58	=58	=58
2G\	1.B-	2d\	2b-\
1E-	.	2.e-\	2.g/
.	.	4d\	4f/
2F\	2A/	[2c\	[2f/
=59	=59	=59	=59
1C	1G	4c\]	2f/]
.	.	4G/	.
.	.	2c\	2e/
2D\	1F	2A/	1f
[2BB-/	.	2B-\	.
=60	=60	=60	=60
2BB-/]	0B-	2F/	0r
2.E-i\	.	2.G/	.
4D\	.	4F/	.
2BB-/	.	[2F/	.
=61	=61	=61	=61
1C	1A	2F/]	1cc
.	.	2E/	.
[1BB-	[1B-	2F/	1dd
.	.	4D/	.
.	.	4E/	.
=62	=62	=62	=62
2BB-/]	1B-]	2F/	2b-\
2GG/	.	1G	2dd\
1AA	1c	.	2cc\
.	.	2F#i/	2a/
=63	=63	=63	=63
1GG	0d	2G/	2.b-\
.	.	2B-\	.
.	.	.	8a/L
.	.	.	8g/J
1D	.	2.A/	2.f/
.	.	4B-\	8e/L
.	.	.	8f/J
=64	=64	=64	=64
1C	1e-i	1c	1g
[1G	1d	1B-	[1b-
=65	=65	=65	=65
1G]	1B-	2.d\	1b-]
.	.	4e\	.
[1F	[1c	[1f	[1a
=66	=66	=66	=66
1F]	0c]	0f]	1a]
1F	.	.	1a
=67	=67	=67	=67
2BB-/	[0B-	0d	1f
2.BB-/	.	.	.
.	.	.	2r
4C/	.	.	.
2D\	.	.	2f/
=68	=68	=68	=68
2BB-/	1B-]	2f\	2d/
2.D\	.	2d\	2.f/
.	1r	2.f\	.
4E\	.	.	4e/
2F\	.	.	4d/
.	.	4e\	4c/
=69	=69	=69	=69
2G\	0r	4d\	2B-/
.	.	4c\	.
2B-\	.	1B-	2d/
1F	.	.	2c/
.	.	2A/	2f/
=70	=70	=70	=70
2BB-/	0r	2B-\	4g/
.	.	.	2b-\
2GG/	.	1c	.
.	.	.	4a/
2C/	.	.	4g/
.	.	.	4f/
2D\	.	2F/	[2f/
=71	=71	=71	=71
1C	1r	1G	2f/]
.	.	.	2e/
[1D	[1F	2r	2.f/
.	.	[2A/	.
.	.	.	4g/
=72	=72	=72	=72
2D\]	1F]	2A/]	2a/
1BB-	.	1D	2.b-\
.	1G	.	.
.	.	.	4g/
2GG/	.	2BB-/	2b-\
=73	=73	=73	=73
2AA/	1F	2C/	2a/
2BB-/	.	1D	2f/
1GG	1B-	.	2g/
.	.	2E/	2b-\
=74	=74	=74	=74
2FF/	1c	2F/	2a/
2.F\	.	2.A/	2.cc\
.	[1A	.	.
4G\	.	4B-\	4b-\
2A\	.	2c\	4a/
.	.	.	4g/
=75	=75	=75	=75
1D	0A]	1d	2f/
.	.	.	2.a/
2r	.	2c\	.
.	.	.	4e/
2D\	.	2d\	2f/
=76	=76	=76	=76
2E\	0G	2B-\	2g/
1C	.	2c\	2.e/
.	.	2C/	.
.	.	.	4d/
2BB-/	.	2D/	[2d/
=77	=77	=77	=77
2.C/	1G	1E	2d/]
.	.	.	2c/
4BB-/	.	.	.
[1GG	[1B-	2D/	1d
.	.	[2G/	.
=78	=78	=78	=78
1GG]	1B-]	4G/]	1g
.	.	4F/	.
.	.	2G/	.
1D	1A	2D/	1f
.	.	[2d\	.
=79	=79	=79	=79
2GG/	[0G	2d\]	2g/
2BB-/	.	2B-\	2d/
2C/	.	2G/	2e/
[2GG/	.	[2B-\	[2d/
=80	=80	=80	=80
4GG/]	1G]	4B-\]	4d/]
4AA/	.	4c\	4c/
4BB-/	.	2.d\	2B-/
4C/	.	.	.
[1Dl	[1Fl	.	[1Al
.	.	4e\	.
.	.	2f\	.
=81	=81	=81	=81
0D]	0F]	2d\	0A]
.	.	4c\	.
.	.	4B-\	.
*	*	*^	*
.	.	1dl/	1Al\	.
*	*	*v	*v	*
!!LO:LB:i:g=z
=82||	=82||	=82||	=82||
*>B	*>B	*>B	*>B
*clefF4	*clefGv2	*clefGv2	*clefG2
*k[b-]	*k[b-]	*k[b-]	*k[b-]
*M2/1	*M2/1	*M2/1	*M2/1
*met(C|)	*met(C)	*met(C|)	*met(C|)
!!section: Qui tollis
!!!OMD: Qui tollis
*	*rscale:1/2	*	*
!	!LO:N:vis=0	!	!
0r	0r	1D	[0f
.	.	[1D	.
=83	=83-	=83	=83
0r	0ryy	2D/]	0f]
.	.	2E/	.
.	.	2F/	.
.	.	2G/	.
=84	=84	=84	=84
!	!LO:N:vis=0	!	!
0r	0r	2.A/	[0f
.	.	4B-\	.
.	.	2c\	.
.	.	[2d\	.
=85	=85-	=85	=85
0r	0ryy	2d\]	0f]
.	.	4c\	.
.	.	4B-\	.
.	.	1A	.
=86	=86	=86	=86
!	!LO:N:vis=0	!	!
1GG	0r	0G	1.g
[1GG	.	.	.
.	.	.	4f/
.	.	.	4e/
=87	=87-	=87	=87
2GG/]	0ryy	[0B-	0d
2AA/	.	.	.
2BB-/	.	.	.
2C/	.	.	.
=88	=88	=88	=88
!	!LO:N:vis=0	!	!
2.D\	0r	0B-]	1r
4E\	.	.	.
2F\	.	.	1d
[2G\	.	.	.
=89	=89-	=89	=89
2G\]	0ryy	0B-	0d
4F\	.	.	.
4E\	.	.	.
1D	.	.	.
=90	=90	=90	=90
!	!LO:N:vis=0	!	!
1.C	0r	0c	0e-
2BB-/	.	.	.
=91	=91-	=91	=91
0GG	0ryy	1.B-	1.d
.	.	4A/	4c/
.	.	4G/	4B-/
=92	=92	=92	=92
!	!LO:N:vis=0	!	!
0r	[y0D	2.F/	1A
.	.	4G/	.
.	.	2A/	[1d
.	.	[2B-\	.
=93	=93-	=93	=93
0r	0D]yy	2B-\]	2d/]
.	.	4A/	2e/
.	.	4G/	.
.	.	4A/	2f/
.	.	4G/	.
.	.	4F/	2g/
.	.	4E/	.
=94	=94	=94	=94
!	!LO:N:vis=0	!	!
0r	[y0F	2D/	2.a/
.	.	2.d\	.
.	.	.	4b-\
.	.	.	2cc\
.	.	4e\	.
.	.	2f\	[2dd\
=95	=95-	=95	=95
0D	0F]yy	2d\	2dd\]
.	.	2.f\	4cc\
.	.	.	4b-\
.	.	.	1a
.	.	4e\	.
.	.	4d\	.
.	.	4c\	.
=96	=96	=96	=96
!	!LO:N:vis=0	!	!
[0E-	[y0G	1.B-	1g
.	.	.	[1g
.	.	[2e-i\	.
=97	=97-	=97	=97
1E-]	0G]yy	2e-\]	2g/]
.	.	2d\	2g/
1E-i	.	2B-\	1g
.	.	2c\	.
=98	=98	=98	=98
!	!LO:N:vis=0	!	!
1D	[y0A	1d	1f
1D	.	1D	1f
=99	=99-	=99	=99
1C	0A]yy	1E	1e
1C	.	1E	1e
=100	=100	=100	=100
!	!LO:N:vis=0	!	!
[0BB-	[y0B-	[0F	[0d
=101	=101-	=101	=101
0BB-]	0B-]yy	0F]	0d]
=102	=102	=102	=102
!	!LO:N:vis=0	!	!
[0FF	[y0A	[0F	[0c
=103	=103-	=103	=103
1FF]	0A]yy	1F]	1c]
1FF	.	1F	1c
=104	=104	=104	=104
0GG	0G	0D	0B-
=105	=105-	=105	=105
[0BB-	[0d	1r	1.f
.	.	[1B-	.
.	.	.	2f/
=106	=106	=106	=106
0BB-]	0d]	1B-]	1f
.	.	[1f	[1b-
=107	=107-	=107	=107
0F	0c	0f]	2b-\]
.	.	.	4a/
.	.	.	4g/
.	.	.	1a
=108	=108	=108	=108
0G	0B-	1d	1b-
.	.	1e	1r
=109	=109-	=109	=109
1D	1A	2f\	1f
.	.	1d	.
1E	1G	.	2.g/
.	.	2c#i\	.
.	.	.	4a/
=110	=110	=110	=110
[0D	0F	0d	1b-
.	.	.	[1a
=111	=111-	=111	=111
1D]	0A	1D	2a/]
.	.	.	4g/
.	.	.	4f/
1C	.	1E	1e
=112	=112	=112	=112
1BB-	0B-	1F	1d
[1GG	.	[1G	2B-/
.	.	.	[2d/
=113	=113-	=113	=113
2GG/]	0d	2G/]	2d/]
2AA/	.	2F/	2c/
1BB-	.	1D	2.B-/
.	.	.	4A/
=114	=114	=114	=114
!	!LO:N:vis=0	!	!
1C	[y0c	1E	2G/
.	.	.	2g/
2.FF/	.	2F/	2a/
.	.	[2A/	[2cc\
4GG/	.	.	.
=115	=115-	=115	=115
2AA/	0c]yy	4A/]	4cc\]
.	.	4G/	4b-\
2BB-/	.	4F#i/	4a/
.	.	4E/	4g/
1AA	.	1F#i	1a
=116	=116	=116	=116
!	!LO:N:vis=0	!	!
[0GG	[y0B-	[0G	[0d
=117	=117-	=117	=117
0GG]	0B-]yy	0G]	0d]
=118	=118	=118	=118
!	!LO:N:vis=0	!	!
0G	0r	1.d	0r
.	.	4c\	.
.	.	4B-\	.
=119	=119-	=119	=119
[0A	0ryy	2.c\	0r
.	.	4d\	.
.	.	2e\	.
.	.	[2f\	.
=120	=120	=120	=120
!	!LO:N:vis=0	!	!
0A]	0r	2f\]	0r
.	.	4e\	.
.	.	4d\	.
.	.	2c\	.
.	.	[2f\	.
=121	=121-	=121	=121
1B-	0ryy	4f\]	0r
.	.	4e\	.
.	.	2d\	.
2A\	.	2c\	.
[2B-\	.	[2d\	.
=122	=122	=122	=122
!	!LO:N:vis=0	!	!
2B-\]	0r	2d\]	0r
4A\	.	4c\	.
4G\	.	4B-\	.
2.F#i\	.	1A	.
4E\	.	.	.
=123	=123-	=123	=123
1.G	0ryy	1G	0g
.	.	1B-	.
4F\	.	.	.
4E\	.	.	.
=124	=124	=124	=124
!	!LO:N:vis=0	!	!
2.F\	0r	2.A/	[0a
4E\	.	4G/	.
4D\	.	4F/	.
4C/	.	4E/	.
[2D\	.	2F/	.
=125	=125-	=125	=125
2D\]	0ryy	2D/	0a]
4C/	.	1G	.
4BB-/	.	.	.
1AA	.	.	.
.	.	2F#i/	.
=126	=126	=126	=126
!	!LO:N:vis=0	!	!
2GG/	0r	1G	1b-
2G\	.	.	.
2F\	.	1r	2a/
[2G\	.	.	[2b-\
=127	=127-	=127	=127
2G\]	0ryy	0d	2b-\]
4F\	.	.	4a/
4E\	.	.	4g/
1D	.	.	1f
=128	=128	=128	=128
!	!LO:N:vis=0	!	!
[0C	0r	[0e	1g
.	.	.	2r
.	.	.	[2cc\
=129	=129-	=129	=129
0C]	0ryy	0e]	2cc\]
.	.	.	4b-\
.	.	.	4a/
.	.	.	2.g/
.	.	.	4f/
=130	=130	=130	=130
!	!LO:N:vis=0	!	!
0r	0r	1f	1a
.	.	2e\	2g/
.	.	[2f\	[2a/
=131	=131-	=131	=131
0r	0ryy	2f\]	2a/]
.	.	4e\	4g/
.	.	4d\	4f/
.	.	2.c#i\	1e
.	.	4Bni\	.
=132	=132	=132	=132
!	!LO:N:vis=0	!	!
0G	[y0B-	0d	1d
.	.	.	[1g
=133	=133-	=133	=133
1.E-	0B-]yy	1.e-	2g/]
.	.	.	2g/
.	.	.	1g
2E-i\	.	2e-i\	.
=134	=134	=134	=134
1E-i	0B-	1e-i	1g
1E-i	.	1e-i	1g
=135	=135-	=135	=135
1F	[0A	1c	1a
[1D	.	[1d	[1f
=136	=136	=136	=136
2D\]	0A]	2d\]	2f/]
2D\	.	2d\	2f/
1D	.	1d	1f
=137	=137-	=137	=137
1E-i	[0G	1B-	1g
1E-i	.	1B-	1g
=138	=138	=138	=138
0C	0G]	0c	0e
=139	=139-	=139	=139
0D	0F	0A	1r
.	.	.	1a
=140	=140	=140	=140
!	!LO:N:vis=0	!	!
0GG	[y0G	[0d	1b-
.	.	.	[1g
=141	=141-	=141	=141
1r	0G]yy	0d]	2g/]
.	.	.	2a/
1G	.	.	1b-
=142	=142	=142	=142
!	!LO:N:vis=0	!	!
2F\	0r	1r	1a
1D	.	.	.
.	.	[1A	2f/
2C/	.	.	[2e/
=143	=143-	=143	=143
2E\	0ryy	1A]	2e/]
2F\	.	.	1a
1G	.	1B-	.
.	.	.	2g/
=144	=144	=144	=144
!	!LO:N:vis=0	!	!
2F\	0r	1A	1a
1D	.	.	.
.	.	2F/	1r
2C/	.	[2E/	.
=145	=145-	=145	=145
2AA/	0ryy	2E/]	0r
2C/	.	1A	.
1BB-	.	.	.
.	.	2G/	.
=146	=146	=146	=146
!	!LO:N:vis=0	!	!
2AA/	0r	1A	2.a/
2.A\	.	.	.
.	.	.	4b-\
.	.	1r	2.cc\
4B-\	.	.	.
[2c\	.	.	.
.	.	.	4b-\
=147	=147-	=147	=147
4c\]	0ryy	0r	4a/
4B-\	.	.	4g/
4A\	.	.	1g
4G\	.	.	.
1A	.	.	.
.	.	.	2f#i/
=148	=148	=148	=148
!	!LO:N:vis=0	!	!
1G	0r	0r	2g/
.	.	.	2e/
2B-\	.	.	2d/
[2A\	.	.	[2f/
=149	=149-	=149	=149
2A\]	0ryy	0r	4f/]
.	.	.	4e/
4G\	.	.	1d
4F\	.	.	.
1E	.	.	.
.	.	.	2c#i/
*	*rscale:1	*	*
=150	=150	=150	=150
*	*M2/1	*	*
*	*met(C|)	*	*
2D\	0r	0r	[0d
2F\	.	.	.
2G\	.	.	.
2F\	.	.	.
=151	=151	=151	=151
2B-\	0r	1r	0d_
4A\	.	.	.
4G\	.	.	.
4A\	.	1D	.
4G\	.	.	.
4F\	.	.	.
4E\	.	.	.
=152	=152	=152	=152
2D\	1r	2.F/	0d]
2.BB-/	.	.	.
.	.	4E/	.
.	1D	2F/	.
4AA/	.	.	.
2GG/	.	2G/	.
=153	=153	=153	=153
1D	1F	2B-\	0r
.	.	2.A/	.
2C/	1G	.	.
.	.	4G/	.
2BB-/	.	[2G/	.
=154	=154	=154	=154
1AA	1A	2G/]	1r
.	.	2F#i/	.
2GG/	1B-	1G	[1dd
[2G\	.	.	.
=155	=155	=155	=155
4G\]	1A	0r	2dd\]
4E\	.	.	.
2F\	.	.	2cc\
2G\	2G/	.	1b-
2B-\	[2d\	.	.
=156	=156	=156	=156
1F	2d\]	1r	1a
.	2c\	.	.
1r	2B-\	[1d	1g
.	4A/	.	.
.	4G/	.	.
=157	=157	=157	=157
1r	2F/	2d\]	2a/
.	2A/	2c\	2cc\
2r	2B-\	1B-	2dd\
[2G\	2d\	.	2b-\
=158	=158	=158	=158
2G\]	1c	1A	1cc
2F\	.	.	.
2G\	1B-	1G	1r
2E\	.	.	.
=159	=159	=159	=159
2F\	0r	2A/	1r
2C/	.	1c	.
1G	.	.	2r
.	.	2B-\	2g/
=160	=160	=160	=160
1C	0r	2c\	2.g/
.	.	2G/	.
.	.	.	4a/
2r	.	2.G/	4b-\
.	.	.	4a/
2GG/	.	.	4g/
.	.	4A/	4f/
=161	=161	=161	=161
2.GG/	0r	4B-\	1g
.	.	4A/	.
.	.	4G/	.
4AA/	.	4F/	.
4BB-/	.	1G	[1d
4AA/	.	.	.
4GG/	.	.	.
4FF/	.	.	.
=162	=162	=162	=162
2GG/	1r	2D/	0d]
2D\	.	2F/	.
[1GG	1B-	2.G/	.
.	.	4F/	.
=163	=163	=163	=163
2GG/]	2B-\	2D/	0r
2AA/	1A	2C/	.
2BB-/	.	2D/	.
2C/	[2G/	2E/	.
=164	=164	=164	=164
1AA	2G/]	1C	1r
.	2F#i/	.	.
2.GG/	1G	[1D	[1b-
4AA/	.	.	.
=165	=165	=165	=165
4BB-/	0r	0D_	2b-\]
4C/	.	.	.
4D\	.	.	1a
4E\	.	.	.
2F\	.	.	.
2G\	.	.	[2g/
=166	=166	=166	=166
1A	0r	1D]	2g/]
.	.	.	2f#i/
1G	.	[1d	1g
=167	=167	=167	=167
*	*M3/1	*	*
*	*met(C|3)	*	*
1D	0r	1d]	2a/
.	.	.	2b-\
1r	.	2r	2g/
.	.	2G/	2b-\
=168	=168	=168	=168
0r	0r	2A/	2cc\
.	.	2B-\	2dd\
.	.	2G/	1b-
.	.	2B-\	.
=169	=169	=169	=169
0r	0r	2c\	2a/
.	.	2d\	1a
.	.	1B-	.
.	.	.	2g/
=170	=170	=170	=170
*M3/1	*	*M3/1	*M3/1
*met(3)	*	*met(3)	*met(3)
!!primary-mensuration: met(3)
1D	0.r	1A	0.a
1.F	.	1d	.
.	.	1c	.
2E\	.	.	.
=171	=171	=171	=171
1D	0.r	1.B-	0.r
0C	.	.	.
.	.	2G/	.
.	.	1A	.
=172	=172	=172	=172
0BB-	0.r	1B-	0dd
.	.	1.f	.
1r	.	.	1cc
.	.	2e\	.
=173	=173	=173	=173
0G	0.r	1d	1.b-
.	.	0c	.
.	.	.	2g/
1F	.	.	1a
=174	=174	=174	=174
1G	0.r	1.B-	0b-
1B-	.	.	.
.	.	4A/	.
.	.	4G/	.
1A	.	1F	1r
=175	=175	=175	=175
1.G	0.r	1G	0.r
.	.	1B-	.
2E\	.	.	.
1F	.	1A	.
=176	=176	=176	=176
1E	0.r	1G	0.r
1C	.	1.A	.
1D	.	.	.
.	.	2G/	.
=177	=177	=177	=177
1BB-	0.r	0G	0.r
0AA	.	.	.
.	.	1F#i	.
=178	=178	=178	=178
0GG	0.r	0G	1.b-
.	.	.	4a/
.	.	.	4g/
1D	.	1r	1f
=179	=179	=179	=179
1E	0.r	0G	1g
0D	.	.	1b-
.	.	1F	1a
=180	=180	=180	=180
0G	0.r	1G	1g
.	.	1B-	1.dd
1F	.	1A	.
.	.	.	2cc\
=181	=181	=181	=181
1.G	0.r	1G	2b-\
.	.	.	2a/
.	.	1d	1b-
2D\	.	.	.
1F	.	1c	2.a/
.	.	.	4g/
=182	=182	=182	=182
1G	0.r	1B-	1.g
0D	.	0A	.
.	.	.	4f#i/
.	.	.	4e/
.	.	.	1f#i
=183	=183	=183	=183
0GG	0.r	0G	0g
1r	.	1r	1r
=184	=184	=184	=184
*M2/1	*M2/1	*M2/1	*M2/1
*met(C|)	*met(C|)	*met(C|)	*met(C|)
0G;	0B-;	0d;	0g;
=185	=185-	=185	=185
0F;	0c;	0f;	0a;
=186	=186	=186	=186
0G;	0B-;	0d;	0g;
=187	=187-	=187	=187
0D;	0A;	0d;	0f;
=188	=188	=188	=188
0E;	0G;	0c;	0g;
=189	=189-	=189	=189
0D;l	0A;l	0d;l	0f;l
!!LO:LB:i:g=z
*	*rscale:1	*	*
=190||	=190||	=190||	=190||
*>C	*>C	*>C	*>C
*clefF4	*clefGv2	*clefGv2	*clefG2
*k[b-]	*k[b-]	*k[b-]	*k[b-]
*M2/1	*M2/1	*M2/1	*M2/1
*met(C)	*met(C)	*met(C)	*met(C)
!!section: Cum Sancto Spiritu
!!!OMD: Cum Sancto Spiritu
1.D	0r	0d	1.f
2E\	.	.	2g/
=191	=191	=191	=191
1F	0r	1c	1a
1G	.	[1B-	2d/
.	.	.	[2g/
=192	=192	=192	=192
1D	0r	2B-\]	2g/]
.	.	2A/	2f/
[1d	.	1G	2g/
.	.	.	2b-\
=193	=193	=193	=193
1d]	0r	2F/	2a/
.	.	1B-	2f/
1c	.	.	2g/
.	.	2A/	2a/
=194	=194	=194	=194
1.B-	0r	2B-\	1d
.	.	2.G/	.
.	.	.	1r
.	.	4E/	.
2A\	.	2F/	.
=195	=195	=195	=195
1G	0r	2G/	0dd
.	.	4F/	.
.	.	4E/	.
2F\	.	2D/	.
[2B-\	.	2d\	.
=196	=196	=196	=196
2B-\]	0r	2e\	1cc
2A\	.	2f\	.
2B-\	.	2d\	[1b-
[2G\	.	[2e\	.
=197	=197	=197	=197
2G\]	0r	4e\]	2b-\]
.	.	4d\	.
2F\	.	1d	2a/
1E	.	.	1g
.	.	2c#i\	.
=198	=198	=198	=198
1.D	0d	2.d\	2.f/
.	.	4e\	4g/
.	.	[1f	2a/
2BB-/	.	.	[2b-\
=199	=199	=199	=199
1F	1c	1f]	2b-\]
.	.	.	2a/
2G\	[1B-	2d\	2b-\
[2E-\	.	[2e-\	[2g/
=200	=200	=200	=200
2E-\]	2B-\]	4e-\]	4g/]
.	.	4d\	4f/
2F\	2A/	2.c\	1f
1C	1G	.	.
.	.	4G/	.
.	.	2c\	2e/
=201	=201	=201	=201
2D\	1F	2A/	2f/
2.BB-/	.	2B-\	2.d/
.	[1B-	1F	.
4C/	.	.	4e/
2D\	.	.	2f/
=202	=202	=202	=202
2E-i\	1B-]	2r	2g/
2BB-/	.	1F	2d/
1C	1A	.	1e
.	.	2E/	.
=203	=203	=203	=203
2BB-/	0B-	2F/	1d
4GG/	.	1G	.
4AA/	.	.	.
4BB-/	.	.	2r
4C/	.	.	.
2D\	.	2F/	2d/
=204	=204	=204	=204
2C/	1c	1E	2e/
2G\	.	.	2g/
2A\	[1d	2D/	2.f/
[2F\	.	[2D/	.
.	.	.	4g/
=205	=205	=205	=205
4F\]	1d]	4D/]	2a/
4E\	.	4E/	.
2D\	.	2F/	2b-\
1C	1e	1G	2cc\
.	.	.	[2g/
=206	=206	=206	=206
1BB-	1d	1.D	2g/]
.	.	.	2f/
1GG	1B-	.	2g/
.	.	2E/	[2b-\
=207	=207	=207	=207
0FF	0c	1F	2b-\]
.	.	.	2a/
.	.	2r	2.a/
.	.	[2f\	.
.	.	.	4g/
=208	=208	=208	=208
0BB-	0B-	2f\]	2.b-\
.	.	2.d\	.
.	.	.	4a/
.	.	.	2f/
.	.	4c\	.
.	.	2B-\	2d/
=209	=209	=209	=209
2r	0r	2c\	2e/
2D\	.	2A/	2f/
2E\	.	2G/	2g/
2F\	.	2A/	2d/
=210	=210	=210	=210
2G\	0r	2B-\	2e/
2D\	.	1A	1d
1E	.	.	.
.	.	2G/	2c#i/
=211	=211	=211	=211
2D\	0F	2A/	1.d
1BB-	.	2D/	.
.	.	2BB-/	.
2AA/	.	2C/	2c/
=212	=212	=212	=212
2GG/	1G	1D	2B-/
2.BB-/	.	.	2.d/
.	1F	[1d	.
4AA/	.	.	4c/
[2D\	.	.	[2f/
=213	=213	=213	=213
4D\]	1B-	2d\]	4f/]
4BB-/	.	.	4d/
2.E-i\	.	2B-\	2.g/
.	1c	2e-i\	.
4C/	.	.	4e/
[2F\	.	[2c\	[2a/
=214	=214	=214	=214
4F\]	0A	2c\]	4a/]
4E\	.	.	4g/
4D\	.	2.d\	4f#i/
4C/	.	.	4e/
1D	.	.	1f#i
.	.	4A/	.
.	.	2d\	.
=215	=215	=215	=215
1.E-	0G	2B-\	1.g
.	.	2G/	.
.	.	1B-	.
2D\	.	.	2f/
=216	=216	=216	=216
1C	1G	1c	1e
2BB-/	[1B-	1d	2f/
2GG/	.	.	2g/
=217	=217	=217	=217
2.G\	1B-]	2r	2.d/
.	.	1d	.
4F\	.	.	4e/
2D\	1A	.	4f/
.	.	.	4g/
2F\	.	2c\	4a/
.	.	.	4b-\
=218	=218	=218	=218
2C/	0G	2e\	2cc\
2D\	.	4d\	4b-\
.	.	4c\	4a/
2.E-\	.	4B-\	4g/
.	.	4c\	4a/
.	.	4d\	4b-\
4D\	.	4e\	4cc\
=219	=219	=219	=219
2.BB-/	1.F	2f\	2dd\
.	.	2.d\	1b-
4C/	.	.	.
2D\	.	.	.
.	.	4B-\	.
2E-i\	2G/	2c\	4a/
.	.	.	4g/
=220	=220	=220	=220
0D;	0A;	0d;	0f#i;
=221	=221	=221	=221
0GGl	0Gl	0dl	0gl
==	==	==	==
*-	*-	*-	*-
!!!RDF**kern: l=long note in original notation
!!!RDF**kern: i=editorial accidental
!!!ENC:	Chris Gage 10-16-2014
!!!END:	2014/10/25/
!!!EED:	Jesse Rodin
!!!EEV:	2015/03/09/
!!!ONB:	Translated from MusicXML and edited on 2015/03/09/ by Craig Sapp
!!muse2ps: T^@{OPR}^u^@{ONM}{. }@{OTL}^C^@{COM}^i2I150v85,85,85,150Q16
